assets/sonr-icons/video-library.svg

<svg xmlns="http://www.w3.org/2000/svg" width="24" height="24" fill="none"><path fill="currentColor" d="M4.327 7.638a3 3 0 0 1 1.311-1.311C6.28 6 7.12 6 8.8 6h6.4c1.68 0 2.52 0 3.162.327a3 3 0 0 1 1.311 1.311C20 8.28 20 9.12 20 10.8v6.4c0 1.68 0 2.52-.327 3.162a3 3 0 0 1-1.311 1.311C17.72 22 16.88 22 15.2 22H8.8c-1.68 0-2.52 0-3.162-.327a3 3 0 0 1-1.311-1.311C4 19.72 4 18.88 4 17.2v-6.4c0-1.68 0-2.52.327-3.162m7.226 3.532a1 1 0 0 0-1.553.833v3.994a1 1 0 0 0 1.553.833l2.998-1.988a1.01 1.01 0 0 0 0-1.684zM6 3a1 1 0 0 0 1 1h10a1 1 0 0 0 0-2H7a1 1 0 0 0-1 1"/></svg>

<svg xmlns="http://www.w3.org/2000/svg" width="24" height="24" fill="none" viewBox="0 0 24 24"><path fill="#000" d="M4.327 7.638C4.614 7.073 5.073 6.614 5.638 6.327C6.28 6 7.12 6 8.8 6H15.2C16.88 6 17.72 6 18.362 6.327C18.927 6.614 19.386 7.073 19.673 7.638C20 8.28 20 9.12 20 10.8V17.2C20 18.88 20 19.72 19.673 20.362C19.386 20.927 18.927 21.386 18.362 21.673C17.72 22 16.88 22 15.2 22H8.8C7.12 22 6.28 22 5.638 21.673C5.073 21.386 4.614 20.927 4.327 20.362C4 19.72 4 18.88 4 17.2V10.8C4 9.12 4 8.28 4.327 7.638ZM11.553 11.17C10.888 10.729 10 11.206 10 12.003V15.997C10 16.794 10.888 17.271 11.553 16.83L14.551 14.842C15.153 14.442 15.153 13.558 14.551 13.158L11.553 11.17ZM6 3C6 3.552 6.448 4 7 4H17C17.552 4 18 3.552 18 3C18 2.448 17.552 2 17 2H7C6.448 2 6 2.448 6 3Z"/></svg>
